X:137
T:score22
L:1/8
Q:1/4=96
M:4/4
I:linebreak $
K:Bb
 (B6 AB | d6- dc | B4) z4 | (c3 d/c/ BAGA |$ B4) z2 (d2 | d3 c/B/ AGd=e | d4 ^c3) (A | %7
 c3 B (3Ace (3ecA | B6) z2 |] %9
